X: 73
T: Kesh
T: Castle [The]
M: 6/8
L: 1/8
R: jig
K: G
D|GAG GAB|ABA ABd|edd gdd|edB dBA|
GAG GAB|ABA ABd|edd gdB|AGF G2 :|
A|BAB dBd|ege dBA|BAB dBG|ABA AGA|
BAB dBd|ege dBd|gfg aga|bgf g2 :|
